icons/1_Primary/Tolgee.svg

<svg width="1024" height="1024" viewBox="0 0 1024 1024" fill="none" xmlns="http://www.w3.org/2000/svg">
<g clip-path="url(#clip0_2_3678)">
<path d="M512 1024C794.77 1024 1024 794.77 1024 512C1024 229.23 794.77 0 512 0C229.23 0 0 229.23 0 512C0 794.77 229.23 1024 512 1024Z" fill="#8C72BD"/>
<path d="M676.09 426.49C663.78 427.67 662.26 408.27 674.59 407.49C687.751 406.449 700.934 409.201 712.58 415.42C730.9 308.22 715.93 282.6 602.74 281.89C604.89 291.416 604.999 301.289 603.06 310.86C600.57 322.67 582.09 318.94 584.39 307.08C594.75 262.57 538.21 228.81 503.84 258.56C475.79 280.39 481.05 326.76 512.98 342.03C515.207 343.225 516.868 345.254 517.599 347.673C518.331 350.092 518.072 352.702 516.88 354.93C503.68 373.05 473.93 333.87 470.77 320.71C343.13 345.76 242.88 528.53 324.73 625.79C298.94 657.16 284.43 702.55 315.06 734.01C360.05 786.87 447.02 714.54 466.58 761.61C476.76 794.3 429.31 810.86 447.29 816.68C538.09 810.6 511.99 681.07 400.33 714.98C338.34 732.81 313.16 698.2 349.57 650.79C438.41 725.76 610.44 656.27 654.8 540.24C640.33 537.35 599.24 499.17 620.6 487.43C634.24 483.49 634.06 502.67 642.24 509.07C660.46 529.6 691.88 531.46 712.4 513.24C747.9 483.67 721.86 422.06 676.1 426.48L676.09 426.49ZM671.28 319.24C674.221 317.498 677.62 316.686 681.031 316.913C684.443 317.14 687.705 318.394 690.39 320.51C696.52 331.62 688.4 349.52 676.62 332.69C672.55 328.12 667.48 322.6 671.28 319.24Z" fill="white"/>
</g>
<defs>
<clipPath id="clip0_2_3678">
<rect width="1024" height="1024" fill="white"/>
</clipPath>
</defs>
</svg>

<svg width="1024" height="1024" fill="none" xmlns="http://www.w3.org/2000/svg"><g clip-path="url(#a)"><path d="M512 1024c282.77 0 512-229.23 512-512S794.77 0 512 0 0 229.23 0 512s229.23 512 512 512Z" fill="#8C72BD"/><path d="M676.09 426.49c-12.31 1.18-13.83-18.22-1.5-19a69.084 69.084 0 0 1 37.99 7.93c18.32-107.2 3.35-132.82-109.84-133.53a69.187 69.187 0 0 1 .32 28.97c-2.49 11.81-20.97 8.08-18.67-3.78 10.36-44.51-46.18-78.27-80.55-48.52-28.05 21.83-22.79 68.2 9.14 83.47a9.533 9.533 0 0 1 3.9 12.9c-13.2 18.12-42.95-21.06-46.11-34.22-127.64 25.05-227.89 207.82-146.04 305.08-25.79 31.37-40.3 76.76-9.67 108.22 44.99 52.86 131.96-19.47 151.52 27.6 10.18 32.69-37.27 49.25-19.29 55.07 90.8-6.08 64.7-135.61-46.96-101.7-61.99 17.83-87.17-16.78-50.76-64.19 88.84 74.97 260.87 5.48 305.23-110.55-14.47-2.89-55.56-41.07-34.2-52.81 13.64-3.94 13.46 15.24 21.64 21.64 18.22 20.53 49.64 22.39 70.16 4.17 35.5-29.57 9.46-91.18-36.3-86.76l-.01.01Zm-4.81-107.25a16.928 16.928 0 0 1 19.11 1.27c6.13 11.11-1.99 29.01-13.77 12.18-4.07-4.57-9.14-10.09-5.34-13.45Z" fill="#fff"/></g><defs><clipPath id="a"><path fill="#fff" d="M0 0h1024v1024H0z"/></clipPath></defs></svg>
